assets/img/feature_3.svg

<svg width="75" height="68" viewBox="0 0 75 68" fill="none" xmlns="http://www.w3.org/2000/svg">
<mask id="mask0_191_462" style="mask-type:alpha" maskUnits="userSpaceOnUse" x="0" y="0" width="75" height="68">
<path fill-rule="evenodd" clip-rule="evenodd" d="M1.62384 7.56295C0.309082 10.3086 0.309082 13.9028 0.309082 21.0913V33.392C0.309082 40.5805 0.309082 44.1747 1.62384 46.9204C2.78033 49.3355 4.62569 51.2991 6.89544 52.5297C9.47579 53.9286 12.8537 53.9286 19.6094 53.9286H40.5245L52.4826 66.9676C54.3707 69.0299 57.6584 67.6076 57.6584 64.7285V53.9244C62.6486 53.8994 65.4396 53.7264 67.647 52.5297C69.9168 51.2991 71.7622 49.3355 72.9186 46.9204C74.2334 44.1747 74.2334 40.5805 74.2334 33.392V21.0914C74.2334 13.9028 74.2334 10.3086 72.9186 7.56295C71.7622 5.14781 69.9168 3.18424 67.647 1.95366C65.0667 0.554688 61.6888 0.554688 54.9331 0.554688H19.6094C12.8537 0.554688 9.47579 0.554688 6.89544 1.95366C4.62569 3.18424 2.78033 5.14781 1.62384 7.56295Z" fill="#8CFF31"/>
</mask>
<g mask="url(#mask0_191_462)">
<path fill-rule="evenodd" clip-rule="evenodd" d="M1.62384 7.56295C0.309082 10.3086 0.309082 13.9028 0.309082 21.0913V33.392C0.309082 40.5805 0.309082 44.1747 1.62384 46.9204C2.78033 49.3355 4.62569 51.2991 6.89544 52.5297C9.47579 53.9286 12.8537 53.9286 19.6094 53.9286H40.5245L52.4826 66.9676C54.3707 69.0299 57.6584 67.6076 57.6584 64.7285V53.9244C62.6486 53.8994 65.4396 53.7264 67.647 52.5297C69.9168 51.2991 71.7622 49.3355 72.9186 46.9204C74.2334 44.1747 74.2334 40.5805 74.2334 33.392V21.0914C74.2334 13.9028 74.2334 10.3086 72.9186 7.56295C71.7622 5.14781 69.9168 3.18424 67.647 1.95366C65.0667 0.554688 61.6888 0.554688 54.9331 0.554688H19.6094C12.8537 0.554688 9.47579 0.554688 6.89544 1.95366C4.62569 3.18424 2.78033 5.14781 1.62384 7.56295Z" fill="#8CFF31"/>
<path d="M-25.3942 -31.886C-17.9601 -31.9635 -8.1468 -31.7966 0.789809 -31.1539M7.0079 27.1435C23.1103 18.9614 49.9529 5.49446 51.3638 5.49446C53.2638 5.49446 -7.15465 7.39516 -12.0945 5.49446C-17.0344 3.59376 9.56491 -12.2455 22.4846 -22.3825C29.0289 -27.5174 16.2155 -30.0444 0.789809 -31.1539M7.0079 27.1435C5.76397 27.7755 4.58414 28.3761 3.48507 28.9364C7.11487 28.6894 11.435 28.4231 16.0247 28.177M7.0079 27.1435C10.5307 86.173 10.7349 58.514 16.0247 42.2413C21.3146 25.9686 25.1445 -0.207642 28.1844 12.4637C31.2244 25.135 66.5634 62.5155 75.6832 70.1183C84.803 77.7211 47.5639 -9.07758 51.3638 -0.207642C55.1637 8.66229 67.3234 28.9364 94.6827 58.7141C122.042 88.4917 55.1637 66.9504 41.1041 70.1183C27.0445 73.2861 74.5432 54.2791 81.0031 51.7448C87.4629 49.2106 8.42494 59.9812 3.48507 58.7141C-1.4548 57.4469 54.7837 32.7378 57.0637 28.9364C58.3686 26.7607 39.9125 27.0496 22.4846 27.8542M0.789809 -31.1539C-18.5544 12.4637 -30.714 42.2413 -25.3942 42.2413C-20.0743 42.2413 9.94487 28.3029 14.1248 12.4637C18.3047 -3.37548 5.00503 -53.4272 28.1844 -42.6566C51.3638 -31.886 107.982 -38.2216 97.3426 -12.879C86.7029 12.4637 109.122 22.6008 72.6432 21.3336C36.1642 20.0665 44.1794 -6.80708 22.4846 27.8542M22.4846 27.8542C20.3016 27.955 18.1347 28.0639 16.0247 28.177M-6.01472 75.1868C-1.07485 70.1183 40.4535 -45.5292 38.4441 -42.6566C36.4347 -39.784 13.1078 24.3385 16.0247 28.177M78.7231 -60.3965C68.0834 -22.3825 31.9843 77.7211 36.5442 70.1183C41.1041 62.5155 72.6433 -15.4132 75.6832 -7.81044" stroke="#07021A"/>
</g>
</svg>

<svg xmlns="http://www.w3.org/2000/svg" width="75" height="68" fill="none" viewBox="0 0 75 68"><mask id="a" width="75" height="68" x="0" y="0" maskUnits="userSpaceOnUse" style="mask-type:alpha"><path fill="#8CFF31" fill-rule="evenodd" d="M1.624 7.563C.309 10.309.309 13.903.309 21.09v12.301c0 7.188 0 10.783 1.315 13.528 1.156 2.416 3.002 4.38 5.271 5.61 2.58 1.399 5.959 1.399 12.714 1.399h20.916l11.958 13.039c1.888 2.062 5.175.64 5.175-2.24V53.924c4.99-.025 7.782-.198 9.989-1.394 2.27-1.23 4.115-3.194 5.272-5.61 1.314-2.745 1.314-6.34 1.314-13.528v-12.3c0-7.19 0-10.783-1.314-13.529-1.157-2.415-3.002-4.379-5.272-5.61C65.067.556 61.689.556 54.933.556H19.61c-6.755 0-10.133 0-12.714 1.399-2.27 1.23-4.115 3.194-5.271 5.609Z" clip-rule="evenodd"/></mask><g mask="url(#a)"><path fill="#8CFF31" fill-rule="evenodd" d="M1.624 7.563C.309 10.309.309 13.903.309 21.09v12.301c0 7.188 0 10.783 1.315 13.528 1.156 2.416 3.002 4.38 5.271 5.61 2.58 1.399 5.959 1.399 12.714 1.399h20.916l11.958 13.039c1.888 2.062 5.175.64 5.175-2.24V53.924c4.99-.025 7.782-.198 9.989-1.394 2.27-1.23 4.115-3.194 5.272-5.61 1.314-2.745 1.314-6.34 1.314-13.528v-12.3c0-7.19 0-10.783-1.314-13.529-1.157-2.415-3.002-4.379-5.272-5.61C65.067.556 61.689.556 54.933.556H19.61c-6.755 0-10.133 0-12.714 1.399-2.27 1.23-4.115 3.194-5.271 5.609Z" clip-rule="evenodd"/><path stroke="#07021A" d="M-25.394-31.886c7.434-.078 17.247.09 26.184.732m6.218 58.297C23.11 18.961 49.953 5.494 51.364 5.494c1.9 0-58.519 1.901-63.458 0-4.94-1.9 21.659-17.74 34.579-27.877 6.544-5.134-6.27-7.661-21.695-8.77m6.218 58.296-3.523 1.793c3.63-.247 7.95-.513 12.54-.759m-9.017-1.034c3.523 59.03 3.727 31.371 9.017 15.098 5.29-16.272 9.12-42.449 12.16-29.777 3.04 12.671 38.378 50.051 47.498 57.654 9.12 7.603-28.12-79.196-24.32-70.326 3.8 8.87 15.96 29.144 43.32 58.922 27.359 29.778-39.52 8.236-53.579 11.404-14.06 3.168 33.44-15.839 39.9-18.373 6.459-2.534-72.58 8.236-77.519 6.97-4.94-1.268 51.299-25.977 53.579-29.779 1.305-2.175-17.151-1.886-34.58-1.082M.79-31.154c-19.344 43.618-31.504 73.395-26.184 73.395S9.945 28.303 14.125 12.464c4.18-15.84-9.12-65.891 14.06-55.12 23.179 10.77 79.797 4.434 69.158 29.777-10.64 25.343 11.779 35.48-24.7 34.213-36.479-1.267-28.464-28.141-50.158 6.52m0 0c-2.183.101-4.35.21-6.46.323m-22.04 47.01c4.94-5.069 46.468-120.716 44.46-117.844-2.01 2.873-25.337 66.995-22.42 70.834m62.698-88.573C68.083-22.383 31.984 77.72 36.544 70.118c4.56-7.602 36.1-85.531 39.14-77.928"/></g></svg>
